X:1
T:Personent hodie
T:Personent hodie
T:Piae Cantiones
T:Arr: Gustav Holst (1874-1934)
C:Arr: Gustav Holst (1874-1934)
%%score 1 { ( 2 4 ) | 3 }
L:1/8
Q:1/4=140
M:4/4
K:Eb
V:1 treble nm="Stemmer"
V:2 treble nm="Orgel"
V:4 treble 
V:3 bass 
V:1
 z8 | z8 | F2 F2 c4 | B2 B2 c4 | c2 c2 f4 | d2 e2 c4 | B2 c2 e4 | B2 c2 A4 | G2 F2 G2 E2 | F4 F4 | %10
w: ||1.Per- so- nent|ho- di- e|vo- ces pu-|er- u- lae,|lau- dan- tes|ju- cun- de|qui no- bis est|na- tus,|
w: ||2.In mun- do|nas- ci- tur,|pa- nis in-|vol- vi- tur,|prae- se- pi|po- ni- tur|sta- bu- lo bru-|to- rum,|
w: ||3.Ma- gi tres|ve- ne- runt,|par- vu- lum|in- qui- runt,|Beth- le- hem|a- de- unt,|stel- lu- lam se-|quen- do,|
w: ||4.Om- nes cle-|ri- cu- li,|par- i- ter|pu- e- ri,|can- tent ut|an- ge- li:|Ad- ven- is- ti|mun- do,|
 G2 A2 B2 E2 | F4 F4 | [EG]2 [FA]2 [GB]4 | [GB]4 [GB]4 | [FA]2 [GB]2 [Ac]4 | [Ac]4 [Ac]4 | %16
w: sum- mo De- o|da- tus,|et de vir,|vir, vir,|et de vir,|vir, vir,|
w: rec- tor su- per-|no- rum,|per- di- dit,|dit, dit,|per- di- dit,|dit, dit,|
w: ip- sum a- do-|ran- do,|au- rum thus,|thus, thus,|au- rum thus,|thus, thus,|
w: lau- des ti- bi|fun- do.|Id- e- o,|o, o,|id- e- o,|o, o,|
 [EG]2 [FA]2 [GB]4 | A2 G2 F4 | G2 F2 F2 E2 | F4 F4 |] %20
w: et de vir-|gi- ne- o|ven- tre pro- cre-|a- tus.|
w: per- di- dit|spo- li- a|prin- ceps in- fer-|no- rum.|
w: au- rum thus,|et myrr- ham|e- i of- fe-|ren- do.|
w: id- e- o,|glo- ri- a|in ex- cel- sis|De- o.|
V:2
 z8 | z8 | [A,CF]2 [A,CF]2 [CGc]4 | [EB]2 [EGB]2 [EAc]4 | [FAc]2 [FAc]2 [Ff]4 | [Gd]2 [Ee]2 [Ec]4 | %6
 [EGB]2 [EAc]2 [EBe]4 | [FB]2 [EGc]2 [CA]4 | [B,DG]2 [DF]2 [B,DG]2 [CE]2 | [A,CF]4 [A,CF]4 | %10
 [G,DG]2 [CEA]2 [B,DB]2 [G,CE]2 | [B,DF]4 [B,DF]4 | z2 [be']2 [ad']2 [gc']2 | %13
 [fb]2 [ea]2 [dg]2 [cf]2 | z2 [be']2 [ad']2 [gc']2 | [fb]2 [ea]2 [dg]2 [cf]2 | %16
 z2 [ae']2 [gd']2 [eb]2 | c'2 [c'f']2 [ae']2 [fc']2 | [Be]2 z2 [Gc]2 z2 | [F=Acf]4 [FAcf]4 |] %20
V:3
 z2 [F,F]2 [E,E]2 [D,D]2 | [C,C]2 [B,,B,]2 [A,,A,]2 [G,,G,]2 | %2
 [F,,F,]2 [D,,D,]2 [E,,E,]2 [C,,C,]2 | [G,,G,]2 [E,,E,]2 [A,,A,]2 [G,,G,]2 | %4
 [F,,F,]2 [E,,E,]2 [D,,D,]2 [C,,C,]2 | [B,,,B,,]2 [G,,,G,,]2 [A,,,A,,]2 [C,,C,]2 | %6
 [E,,E,]2 [A,,A,]2 [G,,G,]2 [E,,E,]2 | [D,,D,]2 [C,,C,]2 [F,,F,]2 [D,,D,]2 | %8
 [G,,G,]2 [B,,B,]2 [G,,G,]2 [C,G,]2 | [F,,F,]2 [E,,E,]2 [D,,D,]2 [C,,C,]2 | %10
 [B,,,B,,]2 [A,,,A,,]2 [G,,,G,,]2 [C,,C,]2 | [B,,,B,,]2 [A,,,A,,]2 [G,,,G,,]2 [F,,,F,,]2 | %12
 [E,,,E,,]8- | [E,,,E,,]8 | [E,,,E,,]8- | [E,,,E,,]8 | [E,,,E,,]8 | [E,,,E,,]8 | %18
 [E,,E,]2 z2 [C,,C,]2 z2 | [F,,=A,,C,F,]4 [F,,A,,C,F,]4 |] %20
V:4
 x8 | x8 | x8 | x8 | x4 B2 A2 | x2 B2 B2 A2 | x8 | x4 G2 F2 | x8 | x8 | x8 | x8 | %12
 [EG]2 [FA]2 [GB]4 | [GB]4 [GB]4 | [FA]2 [GB]2 [Ac]4 | [Ac]4 [Ac]4 | [EG]2 [FA]2 [GB]4 | %17
 [FA]2 [GB]2 [Ac]4 | [Gg]2 [Ff]2 [Ff]2 [Ee]2 | x8 |] %20

